X:1046
T:Morgan Rattler
R:double jig
N:"collected by J.O'Neill"
B:O'Neill's 1046
Z:Transcribed by henrik.norbeck@mailbox.swipnet.se
M:6/8
L:1/8
K:C
c|GFE DEF|EDE C2 c|GFE DEG|A2 G ABc|
GFE DEF|EDE C2 f|ec/B/c dBG|A2 G ABc:|
c3 ecA|~B3 dBG|c3 ceA|afd efg|
c3 ecA|B/A/Bc dBG|~c3 BAG|A2 G ABc:|
cBA BAG|cGF EDC|cBA BAG|A2 G ABc|
cBA BAG|cGF EcA|GFE DEG|A2 G ABc:|
c3 c3|ceg dBG|ccc ceg|afd efg|
c3 c3|ceg dBG|~c3 BGE|A2 G ABc|
c3 c3|ceg dBG|ccc ceg|afd efg|
cde/f/ gfe|dec BAG|~c3 BGE|A2 G ABc||
ceg ceg|ceg dBG|ceg ceg|afd efg|
g/g/ge f/f/fd|e/e/ec d/d/dB|c/c/cA B/B/BG|A2 G ABc:|
GEE CEE|CEE CEE|GEE CEE|A2 G ABc|
GEE CEE|CEE C2 f|ec/B/c dBG|A2G ABc:|
cde/f/ ag2 e|a2 f ag2 e|cde/f/ g2 e|dBG ABc|
cde/f/ agfe|dec BAG|~c3 BAG|ABG ABc:|
cde/f/ agdB|cGE C2 c|cde/f/ agdB|dBG ABc|
cde/f/ agdB|cGF EcA|GFE DEG|ABG ABc:|
EDE C/C/CC|C/C/CC C/C/CC|EDE C/C/CC|A2 G ABc|
EDE C/C/CC|C/C/CC C2 f|ec/B/c dBG|A2G ABc:|
C2 c dcBc|D2 d edcd|C2 c dcBc|A2 G ABc|
C2 c dcBc|D2 d def|agfe dcB|A2 G ABc:|
